X:1
T:Title
%%score { 1 | 2 }
L:1/8
Q:1/4=82
M:4/4
K:D
V:1 treble nm="Grand Piano"
V:2 bass 
V:1
 [DF]2 [FA][Fd] [Gd]2 [Gc]2 | [CE]2 [EG][CGB] [DGB]2 [DFA]2 | [F,D]2 [A,DF][=CFA] [B,DA]2 [B,DG]2 | %3
w: Harold~Marlow * * * *|||
 [A,DF]2 [^G,DF][G,DE] [A,CE]2 z2 | [A,DF]2 [A,FA][Fd] [Gd]2 [Gc]2 | %5
w: ||
 [CE]2 [EG][CGB] [DGB]2 [DFA]2 | [F,D]2 [A,DF][DA] [DA]2 [DG]2 | [DF]2 [EG][CE] D4 |] %8
w: |||
V:2
 [D,A,]2 [D,A,][D,A,] [E,A,]2 [E,A,]2 | [A,,A,]2 [A,,A,]A,, D,2 D,2 | D,2 D,D, G,,2 G,,2 | %3
 A,,2 B,,B,, A,,2 z2 | D,2 D,[D,A,] [E,A,]2 [E,A,]2 | [A,,A,]2 [A,,A,]A,, D,2 D,2 | %6
 D,2 =C,[C,F,] [B,,G,]2 [^A,,G,]2 | [A,,A,]2 [A,,A,][A,,G,] [D,F,]4 |] %8

